src/assets/images/dhl.svg

<svg fill="none" height="38" viewBox="0 0 263 38" width="263" xmlns="http://www.w3.org/2000/svg"><path d="m84.7694 13.967c-1.1463 1.5587-3.0643 4.2683-4.2315 5.8509-.5926.8048-1.6628 2.2661 1.8851 2.2661h18.68s3.011-4.1125 5.535-7.552c3.433-4.67891.297-14.414446-11.977-14.414446-10.9856 0-48.3367 0-48.3367 0l-8.381 11.433546h45.6783c2.3061 0 2.2748.8812 1.1478 2.4159zm-13.723 10.9375c-3.548 0-2.4778-1.4642-1.8852-2.269 1.1672-1.5827 3.1166-4.2638 4.2629-5.8225 1.1284-1.5346 1.1583-2.4159-1.1508-2.4159-2.2285 0-20.8906 0-20.8906 0l-16.8321 22.9691h41.0482c13.5574 0 21.1056-9.259 23.4325-12.4602 0-.0015-24.2325-.0015-27.9849-.0015zm26.7028 12.4617h24.0798l9.129-12.4632-24.077.003c-.008-.0015-9.1318 12.4602-9.1318 12.4602zm62.1298-37.248646-9.236 12.596546h-10.747l9.232-12.596546h-24.073l-16.105 21.966446h58.898l16.101-21.966446zm-27.303 37.248646h24.072l9.133-12.4602h-24.071c-.009-.0015-9.134 12.4602-9.134 12.4602zm-132.385326-7.546v2.6467h33.535926l1.9375-2.6467zm39.078026-4.9157h-39.078026v2.6437h37.136126zm-39.078026 12.4617h29.943226l1.9285-2.6318h-31.871726zm226.984326-4.9008h35.339v-2.6467h-33.399zm-3.59 4.9008h38.929v-2.6318h-37.002zm9.129-12.4617-1.936 2.6467h31.736v-2.6467zm-31.53-2.8205 16.104-21.966446h-25.495c-.009 0-16.116 21.966446-16.116 21.966446zm-27.571 2.8205s-1.76 2.4144-2.615 3.5774c-3.023 4.1004-.35 8.8843 9.516 8.8843h38.661l9.133-12.4602h-54.695z" fill="#fff"/></svg>

<svg width="263" height="38" viewBox="0 0 263 38" fill="none" xmlns="http://www.w3.org/2000/svg">
<path d="M84.7694 13.967C83.6231 15.5257 81.7051 18.2353 80.5379 19.8179C79.9453 20.6227 78.8751 22.084 82.423 22.084C86.177 22.084 101.103 22.084 101.103 22.084C101.103 22.084 104.114 17.9715 106.638 14.532C110.071 9.85309 106.935 0.117554 94.661 0.117554C83.6754 0.117554 46.3243 0.117554 46.3243 0.117554L37.9433 11.5511C37.9433 11.5511 81.3917 11.5511 83.6216 11.5511C85.9277 11.5511 85.8964 12.4323 84.7694 13.967ZM71.0464 24.9045C67.4984 24.9045 68.5686 23.4403 69.1612 22.6355C70.3284 21.0528 72.2778 18.3717 73.4241 16.813C74.5525 15.2784 74.5824 14.3971 72.2733 14.3971C70.0448 14.3971 51.3827 14.3971 51.3827 14.3971L34.5506 37.3662C34.5506 37.3662 64.6132 37.3662 75.5988 37.3662C89.1562 37.3662 96.7044 28.1072 99.0313 24.906C99.0313 24.9045 74.7988 24.9045 71.0464 24.9045ZM97.7492 37.3662H121.829L130.958 24.903L106.881 24.906C106.873 24.9045 97.7492 37.3662 97.7492 37.3662ZM159.879 0.117554L150.643 12.7141H139.896L149.128 0.117554H125.055L108.95 22.084H167.848L183.949 0.117554H159.879ZM132.576 37.3662H156.648L165.781 24.906H141.71C141.701 24.9045 132.576 37.3662 132.576 37.3662ZM0.190674 29.8202V32.4669H33.7266L35.6641 29.8202H0.190674ZM39.2687 24.9045H0.190674V27.5482H37.3268L39.2687 24.9045ZM0.190674 37.3662H30.1339L32.0624 34.7344H0.190674V37.3662ZM227.175 32.4654H262.514V29.8187H229.115L227.175 32.4654ZM223.585 37.3662H262.514V34.7344H225.512L223.585 37.3662ZM232.714 24.9045L230.778 27.5512H262.514V24.9045H232.714ZM201.184 22.084L217.288 0.117554H191.793C191.784 0.117554 175.677 22.084 175.677 22.084H201.184ZM173.613 24.9045C173.613 24.9045 171.853 27.3189 170.998 28.4819C167.975 32.5823 170.648 37.3662 180.514 37.3662C191.912 37.3662 219.175 37.3662 219.175 37.3662L228.308 24.906H173.613V24.9045Z" fill="white"/>
</svg>
